**kern	**kern	**dynam
*part1	*part1	*part1
*staff2	*staff1	*
*I"Piano	*	*
*clefF4	*clefG2	*
*k[f#c#g#d#]	*k[f#c#g#d#]	*
=1	=1	=1
(8C#L]	[8f#L 8b	.
8F#	8f#J]) 8a	.
[8FF#J)	(8aa 8ccc#	.
=	=	=
(8FF#L]	8ff#L 8aa	.
8BBB	8dd# 8ff#	.
[8BBJ)	(8aJ [8cc#	.
=	=	=
(8BBL]	8d#L 8cc#]	.
8E	8eJ)) 8g#	.
[8EEJ)	(8gg# 8bb	mf
=	=	=
8EEL]	8eeL 8gg#	.
8E	8cc# 8ee	.
[8EEJ	8g#J 8cc#	.
=	=	=
*	*^	*
8EEL]	8.bL	4.gn	>
8CC#	.	.	.
.	16a#XK	.	.
[8C#J	8a#J)	.	.
*	*v	*v	*
=	=	=
(8C#L]	(8eeL 8ggn	] p
8FF#	8ddn 8ff#	.
[8F#J)	8cc#J 8ee	.
=	=	=
*	*^	*
(8F#L]	(4ee	8a#XL	.
8BB	.	8gn	.
[8BBBJ)	8ddn))	8f#J	.
*	*v	*v	*
=	=	=
*-	*-	*-
!!!system-decoration: {(s1,s2)}
